X:28
T:Cansoun de Magali
O:France
A:Provence
C:Frdric Mistral
R:Chanson
S:Carnet du tambourinaire Ginas (1924)
Z:Transcrit et/ou corrig par Michel BELLON - 2005-03-02
Z:Pour toute observation mailto:galouvielle@free.fr
M:6/8
L:1/8
K:Bb
V:Galoubet
ddd | d2c f2e | dcB ccc | c2d edc | B2z ddd | d2c f2e | dcB ccc | c2d edc |
 B2z FBd | f2g f2e | d2d dcd | HfeHc FBd | f2g f2e | dcd fec | B3 |]
%%footer $D   Galouvielle-MBe 2008 \nChanson (France)
